icons/calendar-date-28.svg

<svg
  xmlns="http://www.w3.org/2000/svg"
  viewBox="0 0 500 500"
  width="500"
  height="500"
  fill="#ffffff"
>
  <path d="M382.5 47.2h-16.7V5h-24.4v42.2H158.6V5h-24.4v42.2h-16.7a91.5 91.5 0 0 0-91.4 91.4v265a91.5 91.5 0 0 0 91.4 91.4h265a91.5 91.5 0 0 0 91.4-91.4v-265a91.5 91.5 0 0 0-91.4-91.4zm67 356.4a67.1 67.1 0 0 1-67 67h-265a67.1 67.1 0 0 1-67-67v-265c0-2.2.1-4.3.3-6.4h398.4c.2 2.1.3 4.2.3 6.4z" />
  <path
    data-name="2"
    d="M139.2 373.5l16.5-15.1c43.3-41.8 70.9-72.5 70.9-110.5 0-29.4-18.7-59.7-63-59.7a90.3 90.3 0 0 0-58.2 20.8l8.8 19.7c9.5-8 25-17.5 43.7-17.5 30.7 0 40.8 19.3 40.8 40.2-.3 31-24 57.6-76.5 107.6l-21.9 21.2v17.1h131.3v-23.1h-92.4z"
  />
  <path
    data-name="8"
    d="M357.5 287.8v-.9c25.3-12.1 33.9-30.7 33.9-48.1 0-25.6-20-50.6-59.8-50.6-36.1 0-63.6 22.1-63.6 54.7 0 17.7 9.8 35.4 32.6 46.2l.3.9c-25.3 10.8-40.8 29.1-40.8 55.1 0 30 25.9 55.6 68.9 55.6 39.3 0 70-24 70-59.7 0-25-15.9-43.1-41.5-53.2zM294.2 241c0-17.7 12.7-32.9 35.8-32.9 25 0 34.8 17.1 34.8 33.5 0 18.7-13.6 31.3-31.3 37.3-23.8-6.3-39.3-17.3-39.3-37.9zm35.5 139.5c-26.3 0-42.1-18.4-41.2-39.2s13-35.5 37.1-42.4c27.8 7.9 45.2 19.9 45.2 44.9 0 21.2-16.1 36.7-41.1 36.7z"
  />
</svg>

<svg xmlns="http://www.w3.org/2000/svg" viewBox="0 0 500 500">
  <g id="calendar-date-28">
    <path id="outline" d="M382.5,47.2H365.8V5H341.4V47.2H158.6V5H134.2V47.2H117.5a91.5,91.5,0,0,0-91.4,91.4v265A91.5,91.5,0,0,0,117.5,495h265a91.5,91.5,0,0,0,91.4-91.4v-265A91.5,91.5,0,0,0,382.5,47.2Zm67,356.4a67.1,67.1,0,0,1-67,67h-265a67.1,67.1,0,0,1-67-67v-265c0-2.2.1-4.3.3-6.4H449.2c.2,2.1.3,4.2.3,6.4Z"/>
    <path id="_2" data-name="2" d="M139.2,373.5l16.5-15.1c43.3-41.8,70.9-72.5,70.9-110.5,0-29.4-18.7-59.7-63-59.7A90.3,90.3,0,0,0,105.4,209l8.8,19.7c9.5-8,25-17.5,43.7-17.5,30.7,0,40.8,19.3,40.8,40.2-.3,31-24,57.6-76.5,107.6l-21.9,21.2v17.1H231.6V374.2H139.2Z"/>
    <path id="_8" data-name="8" d="M357.5,287.8v-.9c25.3-12.1,33.9-30.7,33.9-48.1,0-25.6-20-50.6-59.8-50.6-36.1,0-63.6,22.1-63.6,54.7,0,17.7,9.8,35.4,32.6,46.2l.3.9c-25.3,10.8-40.8,29.1-40.8,55.1,0,30,25.9,55.6,68.9,55.6,39.3,0,70-24,70-59.7C399,316,383.1,297.9,357.5,287.8ZM294.2,241c0-17.7,12.7-32.9,35.8-32.9,25,0,34.8,17.1,34.8,33.5,0,18.7-13.6,31.3-31.3,37.3C309.7,272.6,294.2,261.6,294.2,241Zm35.5,139.5c-26.3,0-42.1-18.4-41.2-39.2s13-35.5,37.1-42.4c27.8,7.9,45.2,19.9,45.2,44.9C370.8,365,354.7,380.5,329.7,380.5Z"/>
  </g>
</svg>
